X: 30773
T: Orphan, The
R: jig
M: 6/8
K: Gmixolydian
|:DGG GFD|~B2B cBc|dfd cdc|BGG FDC|
D2G GFD|~B2B cBc|dfd cdc|BGG G3:|
d2g g^fg|cBc ^fga|g^fd cdc|BGG FDC|
d2g g^fg|cBc ^fga|g^fd cdc|BGG G3|
d2g g^fg|cBc ^fga|g^fd cdc|BGG FDC|
D2G GFD|~B2B cBc|dfd cdc|BGG G3||

